assets/img/knauf-logo.svg

<svg width="93" height="60" viewBox="0 0 93 60" fill="none" xmlns="http://www.w3.org/2000/svg">
<g clip-path="url(#clip0_337_499)">
<path d="M6.89734 0.0506592L0.0693359 47.9338H7.29064L9.18528 34.3759L9.22109 34.0172L9.43558 32.3673L9.47127 34.627L9.50708 35.3443L10.1149 47.9338H17.3004L15.3341 30.3946L21.6976 15.1509H14.8337L10.5439 26.8078L10.3651 27.2383L9.90026 28.8164L10.1506 27.0948L10.2221 26.7002L13.9042 0.0506592H6.89734ZM47.2581 15.0792L37.3198 47.8621H44.2193L45.7923 41.4777H48.688L47.973 47.8621H54.801L56.66 15.0792H47.2581ZM23.8425 15.1509L18.909 47.9338H25.2008L27.4888 32.9053L27.7748 30.7891L27.7391 32.439L27.7748 32.8336L28.4541 47.9338H35.3179L40.2512 15.1509H34.3884L32.2435 28.7088L31.9217 30.7891L31.9575 29.1392L31.9217 28.7447L31.457 15.1509H23.8425ZM68.8863 15.1509L61.7007 15.1868C60.1263 25.0331 59.3656 31.3056 57.8398 39.5767C57.8011 39.8105 57.7482 40.0573 57.6968 40.3658C57.5938 41.0014 57.5624 41.0516 57.4466 41.9798C57.345 42.8048 57.3092 43.4217 57.4466 44.2395C57.578 45.0257 57.6811 45.4748 58.09 46.1404C58.4432 46.7043 58.7349 46.9998 59.2697 47.3958C59.8232 47.8061 60.2192 47.9611 60.8785 48.2208C61.5477 48.4848 62.7087 48.6225 63.7384 48.687C65.1026 48.7746 66.4839 48.7201 67.7065 48.5436C69.0579 48.3499 70.1403 47.9941 70.9596 47.4317C71.8334 46.8348 72.5983 46.1405 73.0332 45.2079C73.3506 44.5307 73.6094 43.7287 73.7838 42.6613C74.1513 40.4059 73.7867 42.6713 74.1413 40.4016L78.1094 15.1868H71.0312L66.92 41.0473C66.92 41.0473 66.8815 41.5351 66.8127 41.8363C66.737 42.1821 66.7469 42.4275 66.5625 42.733C66.451 42.9109 66.3809 43.0099 66.205 43.1276C66.0063 43.2581 65.8704 43.3069 65.6331 43.3069C65.3657 43.3098 65.1841 43.1993 64.9896 43.02C64.7808 42.8263 64.7207 42.6541 64.6678 42.3744C64.6164 42.1204 64.6678 41.7287 64.6678 41.7287L64.8108 40.9755L68.8863 15.1509ZM80.9693 15.1509L74.1413 59.9495H81.4341L85.8312 32.3314H89.9067L90.7289 26.8796H86.5462L87.4758 20.3517H91.7657L92.4806 15.1509H80.9693ZM51.3334 18.8453L50.976 21.356L50.8688 22.0016L49.3315 35.9899H47.1509L50.6185 21.894L50.7615 21.2842L51.3334 18.8453Z" fill="white"/>
</g>
<defs>
<clipPath id="clip0_337_499">
<rect width="92.5" height="60" fill="white"/>
</clipPath>
</defs>
</svg>

<svg xmlns="http://www.w3.org/2000/svg" width="93" height="60" fill="none"><g clip-path="url(#a)"><path fill="#fff" d="M6.897.05.07 47.935h7.222l1.894-13.558.036-.359.215-1.65.035 2.26.036.717.608 12.59H17.3l-1.966-17.54 6.364-15.243h-6.864l-4.29 11.657-.179.43-.465 1.578.25-1.721.072-.395L13.904.05H6.897Zm40.361 15.03L37.32 47.861h6.9l1.572-6.384h2.896l-.715 6.384h6.828L56.66 15.08h-9.402Zm-23.416.07L18.91 47.935h6.292l2.288-15.029.286-2.116-.036 1.65.036.395.68 15.1h6.863L40.25 15.15h-5.863l-2.145 13.558-.321 2.08.035-1.65-.035-.394-.465-13.594h-7.614Zm45.044 0-7.185.037c-1.575 9.846-2.335 16.119-3.861 24.39-.039.233-.092.48-.143.789-.103.635-.135.686-.25 1.614-.102.825-.138 1.442 0 2.26.131.786.234 1.235.643 1.9.353.564.645.86 1.18 1.256.553.41.95.565 1.608.825.67.264 1.83.402 2.86.466 1.365.088 2.746.033 3.969-.143 1.35-.194 2.433-.55 3.253-1.112.873-.597 1.638-1.291 2.073-2.224.318-.677.576-1.48.75-2.547.368-2.255.004.01.358-2.26l3.968-25.214h-7.078l-4.111 25.86s-.038.488-.107.79c-.076.345-.066.59-.25.896-.112.178-.182.277-.358.395a.905.905 0 0 1-.572.179c-.267.003-.449-.108-.643-.287-.21-.194-.27-.366-.322-.646-.052-.254 0-.645 0-.645l.143-.754 4.075-25.824Zm12.083 0-6.828 44.8h7.293l4.397-27.619h4.076l.822-5.451h-4.183l.93-6.528h4.29l.715-5.201H80.969Zm-29.636 3.695-.357 2.511-.107.646L49.33 35.99h-2.18l3.467-14.096.143-.61.572-2.439Z"/></g><defs><clipPath id="a"><path fill="#fff" d="M0 0h92.5v60H0z"/></clipPath></defs></svg>
